X: 9781
T: Denis Doody's
R: polka
M: 2/4
K: Eminor
|:GE ED|B,E EG|F/G/F/E/ D>E|FG A/B/A|
GE ED|BE EF|GA B/c/B/A/|1 GF D2:|2 GF d2||
|:Be e/f/e/d/|Be e/f/e/d/|Be e(f|f)g e(f|
f)g fg|eB BA|B2 E>F|GA B2:|

